dist/img/partners/1.svg

<svg width="206" height="34" viewBox="0 0 206 34" fill="none" xmlns="http://www.w3.org/2000/svg">
<g clip-path="url(#clip0_216_644)">
<path d="M189.015 0.750515H23.3142C21.8676 0.412728 20.3231 0.250977 18.7451 0.250977C16.8891 0.250977 14.9903 0.569651 13.2634 1.21344C5.98931 2.9583 0.582031 9.4855 0.582031 17.2747C0.582031 25.2209 6.20592 31.8541 13.6988 33.4372C15.4589 33.9784 17.3802 34.2425 19.3357 34.2425C20.9823 34.2425 22.482 34.0878 23.8373 33.7989H189.015C198.163 33.7989 205.583 26.4012 205.583 17.2747C205.583 8.14964 198.163 0.750515 189.015 0.750515Z" fill="white"/>
<path d="M126.117 12.8366C124.903 12.7962 124.63 13.5206 124.63 13.5206L121.389 22.8254C121.344 22.9861 121.318 23.0895 121.32 23.1181C121.342 23.4404 121.503 24.0029 122.717 24.0435C123.932 24.0852 124.204 23.3597 124.204 23.3597L127.469 14.0586C127.469 14.0586 127.516 13.792 127.516 13.7622C127.492 13.4397 127.329 12.8758 126.117 12.8366Z" fill="#014688"/>
<path d="M205.582 17.2746C205.582 13.3978 204.239 9.83507 201.997 7.01709L193.849 30.33C193.849 30.33 193.446 31.9324 194.455 32.4082C194.796 32.5473 195.17 32.5402 195.525 32.4702C201.439 29.947 205.582 24.0945 205.582 17.2746Z" fill="#014688"/>
<path d="M112.812 8.72641L115.818 0.750488H110.288L107.559 8.7254L112.812 8.72641Z" fill="#014688"/>
<path d="M188.03 31.6066L189.567 26.9721C188.563 28.2533 186.702 28.3734 185.244 28.3366C184.129 28.215 183.002 27.6942 182.382 26.6438C181.937 26.0382 181.697 25.0569 181.97 24.2123L185.97 12.6736C186.662 10.7561 188.518 8.97285 190.549 8.7588C190.549 8.7588 193.632 8.3687 195.388 10.4693L197.905 3.3367C195.334 1.70229 192.287 0.750689 189.013 0.750689H154.103L144.387 28.3056V28.302H139.015L148.736 0.750488H145.795L136.077 28.3054V28.3018H130.705L140.426 0.750488H121.188L111.42 28.302L105.984 28.3007L111.195 13.3647H105.939L98.5039 33.7989H187.931C187.699 32.5878 188.03 31.6066 188.03 31.6066ZM124.417 28.2937C124.417 28.2937 120.911 28.2995 119.15 28.2828C118.032 28.2949 116.905 27.6407 116.287 26.5937C115.932 25.9751 115.627 24.9971 115.873 24.161L119.874 12.6209C120.565 10.7046 122.421 8.92135 124.453 8.70729H129.318C130.949 8.90123 132.377 9.67096 132.945 11.6051C133.136 12.2226 133.054 12.8684 132.938 13.424C131.598 17.4686 130.231 21.4692 128.7 25.4256C127.876 27.3337 125.814 28.2949 124.417 28.2937ZM155.869 28.3042L156.357 26.922C155.353 28.2032 153.49 28.3221 152.034 28.2851C150.916 28.1637 149.792 27.6429 149.171 26.5949C148.88 25.8632 148.575 24.9712 148.759 24.1634L152.76 12.6235C153.452 10.7058 155.308 8.92397 157.339 8.70971C157.339 8.70971 160.421 8.3172 162.178 10.4204L162.798 8.64553L168.17 8.65619L161.241 28.3064V28.304L155.869 28.3042ZM172.675 28.2983L177.725 13.9296C177.725 13.9296 178.04 13.0565 176.605 12.8887C175.329 12.7388 174.946 13.5882 174.929 13.6286C174.818 13.9083 169.747 28.2947 169.747 28.2947L164.377 28.2911L171.342 8.66082H176.7L176.43 9.57198C176.43 9.57198 178.802 7.87339 181.34 9.07465C183.873 10.2761 183.177 13.382 183.177 13.382L177.99 28.2979L172.675 28.2983Z" fill="#014688"/>
<path d="M158.994 12.9412C157.78 12.8995 157.507 13.6252 157.507 13.6252L154.267 22.9299C154.219 23.0905 154.193 23.1929 154.195 23.2213C154.219 23.546 154.38 24.1075 155.595 24.1479C156.807 24.1883 157.079 23.4641 157.079 23.4641L160.344 14.1616C160.344 14.1616 160.394 13.8952 160.391 13.8666C160.367 13.5429 160.206 12.9804 158.994 12.9412Z" fill="#014688"/>
<path d="M190.292 23.5143L193.557 14.2132C193.557 14.2132 193.633 13.9454 193.637 13.917C193.68 13.7207 193.417 13.0308 192.203 12.9914C190.99 12.9509 190.716 13.6754 190.716 13.6754L187.477 22.9789C187.43 23.1409 187.406 23.2431 187.406 23.2717C187.43 23.5964 187.591 24.1589 188.803 24.1993C190.018 24.2397 190.292 23.5143 190.292 23.5143Z" fill="#014688"/>
<path d="M5.38812 22.7062H12.3199C12.3199 27.0266 15.697 28.7111 19.5263 28.7111C22.0346 28.7111 25.8651 27.983 25.8651 24.6619C25.8651 21.1611 20.9869 20.5684 16.1953 19.2933C11.3621 18.0204 6.48179 16.154 6.48179 10.0588C6.48179 5.62286 9.29193 2.73105 12.9105 1.29883C5.81414 3.16762 0.582031 9.61133 0.582031 17.2758C0.582031 25.0471 5.96328 31.5612 13.2112 33.3242C8.68714 31.8015 5.32526 28.3709 5.38812 22.7062Z" fill="#E0041D"/>
<path d="M53.1327 11.146L50.7866 0.750488H49.6857L47.2852 11.1378L53.1327 11.146Z" fill="#E0041D"/>
<path d="M43.3073 23.4141L40.1562 33.799H59.7622L57.0549 23.4141H43.3073Z" fill="#E0041D"/>
<path d="M56.8789 0.750488L61.8956 15.8056H38.5656L43.7823 0.750488H23.3051C28.0565 1.88536 31.7059 4.96166 31.7059 10.694H24.7741C24.5445 6.78277 21.7628 5.78349 18.3407 5.78349C16.0596 5.78349 13.4141 6.73751 13.4141 9.46636C13.4141 11.9681 14.9658 12.288 23.1323 14.3805C25.5021 14.9705 32.7998 16.473 32.7998 23.8423C32.7998 28.6719 29.7128 32.5141 23.833 33.7989H32.5665L37.8529 18.6832H62.8235L67.3299 33.7989H69.5434V0.750488H56.8789Z" fill="#E0041D"/>
<path d="M92.0803 0.750488V6.91354H76.5273V14.4352H90.0337V20.1035H76.5273V33.7989H92.9562L104.758 0.750488H92.0803Z" fill="#E0041D"/>
</g>
<defs>
<clipPath id="clip0_216_644">
<rect width="205" height="34" fill="white" transform="translate(0.5)"/>
</clipPath>
</defs>
</svg>

<svg width="206" height="34" viewBox="0 0 206 34" fill="none" xmlns="http://www.w3.org/2000/svg"><g clip-path="url(#clip0_216_644)"><path d="M189.015.75h-165.7c-1.447-.337-2.992-.499-4.57-.499-1.856 0-3.755.319-5.482.962C5.99 2.958.582 9.485.582 17.275c0 7.946 5.624 14.58 13.117 16.162 1.76.541 3.681.806 5.637.806 1.646 0 3.146-.155 4.501-.444h165.178c9.148 0 16.568-7.398 16.568-16.524 0-9.125-7.42-16.524-16.568-16.524z" fill="#fff"/><path d="M126.117 12.837c-1.214-.04-1.487.684-1.487.684l-3.241 9.304a1.72 1.72 0 00-.069.293c.022.322.183.885 1.397.926 1.215.041 1.487-.684 1.487-.684l3.265-9.301s.047-.267.047-.297c-.024-.322-.187-.886-1.399-.925zm79.465 4.438a16.42 16.42 0 00-3.585-10.258l-8.148 23.313s-.403 1.602.606 2.078c.341.14.715.132 1.07.062 5.914-2.523 10.057-8.375 10.057-15.195zm-92.77-8.549L115.818.75h-5.53l-2.729 7.975 5.253.001z" fill="#014688"/><path d="M188.03 31.607l1.537-4.635c-1.004 1.281-2.865 1.401-4.323 1.365-1.115-.122-2.242-.643-2.862-1.693-.445-.606-.685-1.587-.412-2.432l4-11.538c.692-1.918 2.548-3.701 4.579-3.915 0 0 3.083-.39 4.839 1.71l2.517-7.132A16.515 16.515 0 00189.013.75h-34.91l-9.716 27.555v-.004h-5.372L148.736.75h-2.941l-9.718 27.555v-.003h-5.372L140.426.75h-19.238l-9.768 27.552-5.436-.001 5.211-14.936h-5.256l-7.435 20.434h89.427c-.232-1.211.099-2.192.099-2.192zm-63.613-3.313s-3.506.005-5.267-.011c-1.118.012-2.245-.642-2.863-1.69-.355-.618-.66-1.596-.414-2.432l4.001-11.54c.691-1.916 2.547-3.7 4.579-3.914h4.865c1.631.194 3.059.964 3.627 2.898.191.618.109 1.263-.007 1.819-1.34 4.045-2.707 8.045-4.238 12.002-.824 1.908-2.886 2.869-4.283 2.868zm31.452.01l.488-1.382c-1.004 1.281-2.867 1.4-4.323 1.363-1.118-.121-2.242-.642-2.863-1.69-.291-.732-.596-1.624-.412-2.432l4.001-11.54c.692-1.917 2.548-3.699 4.579-3.913 0 0 3.082-.393 4.839 1.71l.62-1.774 5.372.01-6.929 19.65v-.002h-5.372zm16.806-.006l5.05-14.368s.315-.873-1.12-1.041c-1.276-.15-1.659.7-1.676.74-.111.28-5.182 14.666-5.182 14.666l-5.37-.004 6.965-19.63h5.358l-.27.911s2.372-1.699 4.91-.497c2.533 1.201 1.837 4.307 1.837 4.307l-5.187 14.916h-5.315z" fill="#014688"/><path d="M158.994 12.941c-1.214-.042-1.487.684-1.487.684l-3.24 9.305a1.57 1.57 0 00-.072.291c.024.325.185.887 1.4.927 1.212.04 1.484-.684 1.484-.684l3.265-9.302s.05-.267.047-.295c-.024-.324-.185-.887-1.397-.926zm31.298 10.573l3.265-9.3s.076-.269.08-.297c.043-.196-.22-.886-1.434-.926-1.213-.04-1.487.684-1.487.684l-3.239 9.304a1.868 1.868 0 00-.071.293c.024.324.185.887 1.397.927 1.215.04 1.489-.685 1.489-.685z" fill="#014688"/><path d="M5.388 22.706h6.932c0 4.32 3.377 6.005 7.206 6.005 2.509 0 6.34-.728 6.34-4.05 0-3.5-4.88-4.093-9.67-5.368-4.834-1.273-9.714-3.139-9.714-9.234 0-4.436 2.81-7.328 6.429-8.76C5.814 3.168.582 9.61.582 17.276c0 7.771 5.381 14.285 12.63 16.048-4.525-1.522-7.887-4.953-7.824-10.618zm47.745-11.56L50.787.75h-1.101l-2.4 10.388 5.847.008zm-9.826 12.268L40.157 33.8h19.605l-2.707-10.385H43.307z" fill="#E0041D"/><path d="M56.879.75l5.017 15.056h-23.33L43.782.75H23.305c4.752 1.135 8.4 4.212 8.4 9.944h-6.93c-.23-3.911-3.012-4.91-6.434-4.91-2.281 0-4.927.954-4.927 3.682 0 2.502 1.552 2.822 9.718 4.915 2.37.59 9.668 2.092 9.668 9.461 0 4.83-3.087 8.672-8.967 9.957h8.733l5.287-15.116h24.97L67.33 33.8h2.213V.75H56.88zm35.201 0v6.164H76.527v7.521h13.507v5.668H76.527V33.8h16.43l11.8-33.05H92.08z" fill="#E0041D"/></g><defs><clipPath id="clip0_216_644"><path fill="#fff" transform="translate(.5)" d="M0 0h205v34H0z"/></clipPath></defs></svg>
